src/icons/blockchains/dark/noIcon.svg

<svg width="24" height="24" viewBox="0 0 24 24" fill="none" xmlns="http://www.w3.org/2000/svg">
  <rect width="24" height="24" rx="12" fill="#080530" />
  <path
    d="M11.5 4.28868C11.8094 4.11004 12.1906 4.11004 12.5 4.28868L18.4282 7.71132C18.7376 7.88996 18.9282 8.22008 18.9282 8.57735V15.4226C18.9282 15.7799 18.7376 16.11 18.4282 16.2887L12.5 19.7113C12.1906 19.89 11.8094 19.89 11.5 19.7113L5.5718 16.2887C5.2624 16.11 5.0718 15.7799 5.0718 15.4226V8.57735C5.0718 8.22008 5.2624 7.88996 5.5718 7.71132L11.5 4.28868Z"
    fill="white"
  />
  <path
    d="M12.25 6.72169L16.4462 9.14434C16.6009 9.23365 16.6962 9.39872 16.6962 9.57735V14.4226C16.6962 14.6013 16.6009 14.7663 16.4462 14.8557L12.25 17.2783C12.0953 17.3676 11.9047 17.3676 11.75 17.2783L7.55385 14.8557C7.39915 14.7663 7.30385 14.6013 7.30385 14.4226V9.57735C7.30385 9.39872 7.39915 9.23365 7.55385 9.14434L11.75 6.72169C11.9047 6.63237 12.0953 6.63237 12.25 6.72169Z"
    stroke="#010014"
  />
  <path d="M7.5 9.5L12 12V17" stroke="#010014" />
  <path d="M12 12L16.5 9.5" stroke="#010014" />
</svg>

<svg
  xmlns="http://www.w3.org/2000/svg"
  width="24"
  height="24"
  fill="none"
  xmlns:v="https://vecta.io/nano"
>
  <rect width="24" height="24" rx="12" fill="#080530" />
  <path
    d="M11.5 4.289a1 1 0 0 1 1 0l5.928 3.423a1 1 0 0 1 .5.866v6.845a1 1 0 0 1-.5.866L12.5 19.711a1 1 0 0 1-1 0l-5.928-3.423a1 1 0 0 1-.5-.866V8.577a1 1 0 0 1 .5-.866L11.5 4.289z"
    fill="#fff"
  />
  <g stroke="#010014">
    <path
      d="M12.25 6.722l4.196 2.423a.5.5 0 0 1 .25.433v4.845a.5.5 0 0 1-.25.433l-4.196 2.423a.5.5 0 0 1-.5 0l-4.196-2.423a.5.5 0 0 1-.25-.433V9.577a.5.5 0 0 1 .25-.433l4.196-2.423a.5.5 0 0 1 .5 0z"
    />
    <path d="M7.5 9.5L12 12v5m0-5l4.5-2.5" />
  </g>
</svg>
